X: 1
T: the Prince of Wales
C: Joseph Lolop
R: jig
Z: 2006 John Chambers <jc:trillian.mit.edu>
B: Pinewoods Alternates
M: 6/8
L: 1/8
K: A
c/B/ \
| "A"Ace a3 | "D"fga "A"edc | "D"def "A"edc | "Bm"dBB "E7"B2c \
| "A"Ace a3 | "D"fga "A"edc | "D"def "E7"efd | "A"cAA A2 :|
f \
| "A"ecA EAA | cAA ABc | "D"def "A"edc | "Bm"dBB "E7"B2f \
| "A"ecA EAA | cAA ABc | "D"def "E7"efd | "A"cAA A2 |]
f \
| "A"ecA EAA | cAA ABc | "D"def "A"edc | "Bm"dBB "E7"B2g \
| "D"agf "Em"gfe | "F#m"fed "A"edc | "D"def "E7"efd | "A"cAA A2 |]
